src/assets/filled/Illustrator.svg

<?xml version="1.0" encoding="UTF-8"?>
<svg width="24" height="24" viewBox="0 0 24 24" xmlns="http://www.w3.org/2000/svg">
 <path d="m16.19 2h-8.38c-3.64 0-5.81 2.17-5.81 5.81v8.37c0 3.64 2.17 5.81 5.81 5.81h8.37c3.64 0 5.81-2.17 5.81-5.81v-8.37c0.01-3.64-2.16-5.81-5.8-5.81zm-3.13 14.68c-0.08 0.03-0.16 0.04-0.24 0.04-0.31 0-0.61-0.2-0.71-0.51l-0.71-2.13h-3.08l-0.98 2.2c-0.17 0.38-0.61 0.55-0.99 0.38s-0.55-0.61-0.38-0.99l3.53-7.93c0.13-0.28 0.4-0.47 0.72-0.44 0.31 0.01 0.58 0.22001 0.68 0.51001l2.64 7.93c0.12 0.38-0.09 0.81-0.48 0.94zm4.04-0.71c0 0.41-0.34 0.75-0.75 0.75s-0.75-0.34-0.75-0.75v-5.29c0-0.41 0.34-0.75001 0.75-0.75001s0.75 0.34001 0.75 0.75001v5.29zm0.17-7.55c-0.05 0.12-0.12 0.22998-0.22 0.31998-0.09 0.09-0.2 0.17-0.32 0.22s-0.25 0.07001-0.38 0.07001c-0.27 0-0.52-0.10001-0.71-0.29001-0.09-0.09-0.17-0.19998-0.22-0.31998-0.05-0.13-0.07-0.25001-0.07-0.39001 0-0.13 0.02-0.26001 0.07-0.38001 0.06-0.12 0.13-0.23 0.22-0.32 0.09-0.1 0.2-0.17 0.32-0.22 0.37-0.15 0.82-0.06 1.09 0.22 0.1 0.09 0.17 0.2 0.22 0.32s0.08 0.25001 0.08 0.38001c0 0.14-0.03 0.27001-0.08 0.39001z"/>
 <path d="m8.98 12.569h1.92l-0.82-2.46-1.1 2.46z"/>
</svg>

<svg width="24" height="24" viewBox="0 0 24 24"  xmlns="http://www.w3.org/2000/svg">
<path d="M16.19 2H7.81C4.17 2 2 4.17 2 7.81V16.18C2 19.82 4.17 21.99 7.81 21.99H16.18C19.82 21.99 21.99 19.82 21.99 16.18V7.81C22 4.17 19.83 2 16.19 2ZM13.06 16.68C12.98 16.71 12.9 16.72 12.82 16.72C12.51 16.72 12.21 16.52 12.11 16.21L11.4 14.08H8.32L7.34 16.28C7.17 16.66 6.73 16.83 6.35 16.66C5.97 16.49 5.8 16.05 5.97 15.67L9.5 7.73999C9.63 7.45999 9.9 7.26999 10.22 7.29999C10.53 7.30999 10.8 7.52 10.9 7.81L13.54 15.74C13.66 16.12 13.45 16.55 13.06 16.68ZM17.1 15.97C17.1 16.38 16.76 16.72 16.35 16.72C15.94 16.72 15.6 16.38 15.6 15.97V10.68C15.6 10.27 15.94 9.92999 16.35 9.92999C16.76 9.92999 17.1 10.27 17.1 10.68V15.97ZM17.27 8.42001C17.22 8.54001 17.15 8.64999 17.05 8.73999C16.96 8.82999 16.85 8.90999 16.73 8.95999C16.61 9.00999 16.48 9.03 16.35 9.03C16.08 9.03 15.83 8.92999 15.64 8.73999C15.55 8.64999 15.47 8.54001 15.42 8.42001C15.37 8.29001 15.35 8.17 15.35 8.03C15.35 7.9 15.37 7.76999 15.42 7.64999C15.48 7.52999 15.55 7.41999 15.64 7.32999C15.73 7.22999 15.84 7.15999 15.96 7.10999C16.33 6.95999 16.78 7.04999 17.05 7.32999C17.15 7.41999 17.22 7.52999 17.27 7.64999C17.32 7.76999 17.35 7.9 17.35 8.03C17.35 8.17 17.32 8.30001 17.27 8.42001Z" />
<path d="M8.97998 12.5694H10.9L10.08 10.1094L8.97998 12.5694Z" />
</svg>
